packages/graphiql-react/src/icons/prettify.svg

<svg
  width="25"
  height="25"
  viewBox="0 0 25 25"
  fill="none"
  xmlns="http://www.w3.org/2000/svg"
>
  <path
    d="M10.2852 24.0745L13.7139 18.0742"
    stroke="currentColor"
    stroke-width="1.5625"
  />
  <path
    d="M14.5742 24.0749L17.1457 19.7891"
    stroke="currentColor"
    stroke-width="1.5625"
  />
  <path
    d="M19.4868 24.0735L20.7229 21.7523C21.3259 20.6143 21.5457 19.3122 21.3496 18.0394C21.1535 16.7666 20.5519 15.591 19.6342 14.6874L23.7984 6.87853C24.0123 6.47728 24.0581 6.00748 23.9256 5.57249C23.7932 5.1375 23.4933 4.77294 23.0921 4.55901C22.6908 4.34509 22.221 4.29932 21.7861 4.43178C21.3511 4.56424 20.9865 4.86408 20.7726 5.26533L16.6084 13.0742C15.3474 12.8142 14.0362 12.9683 12.8699 13.5135C11.7035 14.0586 10.7443 14.9658 10.135 16.1L6 24.0735"
    stroke="currentColor"
    stroke-width="1.5625"
  />
  <path
    d="M4 15L5 13L7 12L5 11L4 9L3 11L1 12L3 13L4 15Z"
    stroke="currentColor"
    stroke-width="1.5625"
    stroke-linejoin="round"
  />
  <path
    d="M11.5 8L12.6662 5.6662L15 4.5L12.6662 3.3338L11.5 1L10.3338 3.3338L8 4.5L10.3338 5.6662L11.5 8Z"
    stroke="currentColor"
    stroke-width="1.5625"
    stroke-linejoin="round"
  />
</svg>

<svg xmlns="http://www.w3.org/2000/svg" width="25" height="25" fill="none" viewBox="0 0 25 25">
  <path stroke="currentColor" stroke-width="1.563" d="m10.285 24.075 3.429-6m.86 6 2.572-4.286m2.341 4.285 1.236-2.322a5.98 5.98 0 0 0-1.089-7.065l4.164-7.808a1.714 1.714 0 0 0-3.025-1.614l-4.165 7.81a5.98 5.98 0 0 0-6.473 3.025L6 24.073"/>
  <path stroke="currentColor" stroke-linejoin="round" stroke-width="1.563" d="m4 15 1-2 2-1-2-1-1-2-1 2-2 1 2 1zm7.5-7 1.166-2.334L15 4.5l-2.334-1.166L11.5 1l-1.166 2.334L8 4.5l2.334 1.166z"/>
</svg>
